X:1
T:Dolc'è per te soffrire
T:Dolc'è per te soffrire
T:Marc'Antonio  Tornioli
T:Source : Canzonette spirituali a tre voci---Libro Primo---Venetia---Ang.Gardano---1607. Editor : André Vierendeels (20/06/16). 
T:Notes : Original clefs : C1, C1, F4 Text by Angelo Grillo (Pietosi affetti)
T:©
T:©
C:Marc'Antonio  Tornioli
Z:©
%%score [ 1 2 3 ]
L:1/8
Q:1/4=93
M:4/4
K:C
V:1 treble nm="Soprano 1" snm="S 1"
V:2 treble nm="Soprano 2" snm="S 2"
V:3 bass nm="Bass" snm="B"
V:1
 d6 cB | c2 B2 A4 | A2 c2 B2 B2 | A2 A2 B4 |[M:2/4] B4 :: z2 cd |[M:4/4] e2 g4 ^f2 | g2 G2 c2 e2 | %8
w: Dolc' è per|te sof- fri-|re, dol- cis- si-|mo mo- ri-|re,|a- mo-|ro- so Gie-|su pur che la|
w: Muo- ri, mia|vi- ta, muo-|ri, mi- ra'i chia-|ri splen- do-|ri,|in quel|No- me, in|quel No- me vi-|
 f4 e2 z2 | z2 G2 c3 B | AEFG A2 d2- | d2 ^c2 d2 c2 | B3 A GDEF | G6 B2 | A4 G4 :| %15
w: mor- te,|del tuo bel|no- me'un rag- gio sol con-|* for- te, del|tuo bel no- me'un rag- gio|sol con-|for- te.|
w: vra- i,|qua- s'in bel|rag- gio'e- ter- no lu- *|* * me, qua-|s'in bel rag- gio'e- ter- no|lu- *|* me.|
V:2
 B2 AG A4- | A2 G2 ^F4 | ^F2 A2 G2 G2 | G2 ^F2 G4 |[M:2/4] G4 :: z4 |[M:4/4] GA B2 B2 c2 | %7
w: Dolc' è per te|_ sof- fri-|re, dol- cis- si-|mo mo- ri-|re,||a- mo- ro- so Gie-|
w: Muo- ri, mia vi-|* ta, muo-|ri, mi- ra'i chia-|ri splen- do-|ri,||in quel No- me, in|
 B2 c2 AB c2- | c2 B2 c2 B2 | e3 d cGAB | c6 f2 | e4 d2 z2 | z2 c2 g3 f | eBcd ec g2- | %14
w: su pur che la mor-|* * te, del|tuo bel no- me'un rag- gio|sol con-|for- te,|del tuo bel|no- me'un rag- gio sol con- for-|
w: quel No- me vi- vra-|* * i, qua-|s'in bel rag- gio'e- ter- no|lu- *|* me,|qua- s'in bel|rag- gio'e- ter- no lu- * *|
 g^f/e/ f2 g4 :| %15
w: * * * * te.|
w: * * * * me.|
V:3
 G,2 F,E, F,4- | F,2 G,2 D,4 | D,2 A,,2 B,,2 C,2 | D,2 D,2 G,4 |[M:2/4] G,4 :: z2 A,B, | %6
w: Dolc' è per te|_ sof- fri-|re, dol- cis- si-|mo mo- ri-|re,|a- mo-|
w: Muo- ri, mia vi-|* ta, muo-|ri, mi- ra'i chia-|ri splen- do-|ri,|in quel|
[M:4/4] C2 G,4 A,2 | G,2 E,2 F,2 E,2 | D,4 C,2 G,2 | C3 B, A,E,F,G, | A,6 D,2 | A,4 D,2 A,2 | %12
w: ro- so Gie-|su pur che la|mor- te, del|tuo bel no- me'un rag- gio|sol con-|for- te, del|
w: No- me, in|quel No- me vi-|vra- i, qua-|s'in bel rag- gio'e- ter- no|lu- *|* me, qua-|
 G,3 F, E,B,,C,D, | E,6 B,,2 | D,4 G,4 :| %15
w: tuo bel no- me'un rag- gio|sol con-|for- te.|
w: s'in bel rag- gio'e- ter- no|lu- *|* me.|

